packages/icons/raw/imported/DevicesJoystick.svg

<svg width="32" height="32" viewBox="0 0 32 32" fill="none" xmlns="http://www.w3.org/2000/svg">
<path d="M18.8955 18.3014L19.3192 18.0359L18.8955 18.3014ZM17.2009 17.3636L17.2009 16.8636L17.2009 17.3636ZM14.7991 17.3636L14.7991 16.8636L14.7991 17.3636ZM6.39656 20.9223L5.90238 20.8463L6.39656 20.9223ZM23.8504 12.8157L25.1093 20.9984L26.0976 20.8463L24.8388 12.6637L23.8504 12.8157ZM7.16124 12.6637L5.90238 20.8463L6.89075 20.9984L8.14961 12.8157L7.16124 12.6637ZM19.4027 8L12.5973 8L12.5973 9L19.4027 9L19.4027 8ZM12.6808 18.0359L10.0801 22.1853L10.9274 22.7164L13.5282 18.567L12.6808 18.0359ZM21.9199 22.1853L19.3192 18.0359L18.4719 18.567L21.0726 22.7164L21.9199 22.1853ZM17.2009 16.8636L14.7991 16.8636L14.7991 17.8636L17.2009 17.8636L17.2009 16.8636ZM19.3192 18.0359C18.862 17.3065 18.0617 16.8636 17.2009 16.8636L17.2009 17.8636C17.7174 17.8636 18.1975 18.1293 18.4719 18.567L19.3192 18.0359ZM10.0801 22.1853C9.76237 22.6922 9.2062 23 8.60795 23L8.60795 24C9.55054 24 10.4268 23.515 10.9274 22.7164L10.0801 22.1853ZM23.392 23C22.7938 23 22.2376 22.6922 21.9199 22.1853L21.0726 22.7164C21.5732 23.515 22.4495 24 23.392 24L23.392 23ZM13.5282 18.567C13.8025 18.1294 14.2826 17.8636 14.7991 17.8636L14.7991 16.8636C13.9383 16.8636 13.138 17.3065 12.6808 18.0359L13.5282 18.567ZM24.8388 12.6637C24.426 9.98061 22.1174 8 19.4027 8L19.4027 9C21.6238 9 23.5127 10.6205 23.8504 12.8157L24.8388 12.6637ZM8.14961 12.8157C8.48734 10.6205 10.3762 9 12.5973 9L12.5973 8C9.88265 8 7.57402 9.98061 7.16124 12.6637L8.14961 12.8157ZM5.90238 20.8463C5.64727 22.5045 6.93024 24 8.60795 24L8.60795 23C7.54312 23 6.72883 22.0508 6.89075 20.9984L5.90238 20.8463ZM25.1093 20.9984C25.2712 22.0508 24.4569 23 23.392 23L23.392 24C25.0698 24 26.3527 22.5045 26.0976 20.8463L25.1093 20.9984Z" fill="black"/>
</svg>

<svg width="32" height="32" fill="none" xmlns="http://www.w3.org/2000/svg"><path d="m18.895 18.301.424-.265-.424.265Zm-1.694-.937v-.5.5Zm-2.402 0v-.5.5Zm-8.402 3.558-.495-.076.495.076Zm17.453-8.106 1.26 8.182.988-.152-1.26-8.182-.988.152Zm-16.689-.152-1.259 8.182.989.152 1.259-8.182-.989-.152ZM19.403 8h-6.806v1h6.806V8ZM12.68 18.036l-2.6 4.15.846.53 2.601-4.149-.847-.531Zm9.239 4.15-2.6-4.15-.848.531 2.6 4.15.848-.532Zm-4.72-5.322h-2.4v1h2.4v-1Zm2.12 1.172a2.5 2.5 0 0 0-2.12-1.172v1a1.5 1.5 0 0 1 1.272.703l.847-.531Zm-9.24 4.15A1.737 1.737 0 0 1 8.608 23v1c.943 0 1.819-.485 2.32-1.284l-.848-.53ZM23.392 23a1.737 1.737 0 0 1-1.472-.815l-.847.531A2.738 2.738 0 0 0 23.392 24v-1Zm-9.864-4.433a1.5 1.5 0 0 1 1.271-.703v-1a2.5 2.5 0 0 0-2.118 1.172l.847.531Zm11.31-5.903A5.5 5.5 0 0 0 19.404 8v1a4.5 4.5 0 0 1 4.447 3.816l.989-.152Zm-16.688.152A4.5 4.5 0 0 1 12.597 9V8a5.5 5.5 0 0 0-5.436 4.664l.989.152Zm-2.248 8.03A2.737 2.737 0 0 0 8.608 24v-1c-1.065 0-1.88-.95-1.717-2.002l-.989-.152Zm19.207.152A1.737 1.737 0 0 1 23.392 23v1a2.737 2.737 0 0 0 2.706-3.154l-.989.152Z" fill="#000"/></svg>
